svgs/thin/lightbulb-on.svg

<svg xmlns="http://www.w3.org/2000/svg" viewBox="0 0 640 512"><!--! Font Awesome Pro 6.3.0 by @fontawesome - https://fontawesome.com License - https://fontawesome.com/license (Commercial License) Copyright 2023 Fonticons, Inc. --><path d="M328 72.01c0-4.422-3.594-7.993-8-7.993c-66.16 0-120 53.82-120 119.1c0 4.422 3.594 8 8 8s8-3.578 8-8c0-57.34 46.66-104 104-104C324.4 80.01 328 76.43 328 72.01zM383.1 415.1H256c-8.846 0-16.01 7.18-16 16.03l.0746 22.34c.0098 6.324 1.855 12.42 5.359 17.68l17.09 25.69c5.227 7.855 17.22 14.28 26.65 14.28h61.72c9.436 0 21.4-6.418 26.63-14.27l17.09-25.69c2.93-4.406 5.351-12.4 5.359-17.68l-.0254-22.34C399.1 423.2 392.8 415.1 383.1 415.1zM383.9 454.4c-.0039 2.148-1.473 6.992-2.664 8.785l-17.09 25.68c-2.266 3.406-9.246 7.148-13.34 7.148H289.2c-4.09 0-11.07-3.738-13.34-7.141l-17.05-25.62c-1.768-2.656-2.703-5.742-2.709-8.934l-.0371-22.32h127.9L383.9 454.4zM320 .0036L319.5 .0154C222.4 .3123 143.3 79.55 143.3 176.7c0 42.78 15.53 84.06 43.75 116.2c13.56 15.45 38.69 52.09 48.19 84.05c.5 4.375 4.438 7.5 8.875 7c4.375-.5156 7.531-4.484 7-8.875l-.375-2.094c-10.41-34.98-37.22-74.17-51.69-90.64C173.5 253.1 159.3 215.6 159.3 176.7c0-89.81 70.34-160.4 160.2-160.7h.5313c42.81 0 83.06 16.62 113.4 46.86c30.47 30.37 47.25 70.78 47.25 113.8c0 38.91-14.12 76.44-39.75 105.7c-14.47 16.47-41.28 55.66-52 92.16c0 .0313-.0625 .5625-.0625 .5781c-.5313 4.391 2.531 8.672 6.906 9.188c.3438 .0313 .6875 .0469 1.031 .0469c3.938 0 7.281-2.719 7.75-6.766c9.688-32.55 34.81-69.19 48.38-84.64c28.22-32.17 43.75-73.45 43.75-116.2c0-47.3-18.44-91.73-51.94-125.1C411.4 18.29 367.1 .0036 320 .0036zM43.58 .8509C39.66-1.102 34.84 .4915 32.84 4.429C30.88 8.382 32.47 13.18 36.42 15.16l80 40C117.6 55.74 118.8 56.01 120 56.01c2.922 0 5.75-1.625 7.156-4.422C129.1 47.63 127.5 42.84 123.6 40.85L43.58 .8509zM112 152c0-4.422-3.578-8-8-8h-96c-4.422 0-8 3.578-8 8s3.578 8 8 8h96C108.4 160 112 156.4 112 152zM520 56.01c1.203 0 2.422-.2656 3.578-.8438l80-40c3.953-1.984 5.547-6.781 3.578-10.73c-1.984-3.953-6.75-5.562-10.73-3.578l-80 40c-3.953 1.984-5.547 6.781-3.578 10.73C514.3 54.38 517.1 56.01 520 56.01zM632 144h-96c-4.422 0-8 3.578-8 8s3.578 8 8 8h96c4.422 0 8-3.578 8-8S636.4 144 632 144zM523.6 248.8C522.4 248.3 521.2 247.1 520 247.1c-2.922 0-5.75 1.625-7.156 4.422c-1.969 3.953-.375 8.75 3.578 10.73l80 40c3.922 1.953 8.734 .3594 10.73-3.578c1.969-3.953 .375-8.75-3.578-10.73L523.6 248.8zM120 247.1c-1.203 0-2.422 .2656-3.578 .8438l-80 40C32.47 290.8 30.88 295.6 32.84 299.6c1.984 3.953 6.75 5.562 10.73 3.578l80-40c3.953-1.984 5.547-6.781 3.578-10.73C125.8 249.6 122.9 247.1 120 247.1z"/></svg>

<svg xmlns="http://www.w3.org/2000/svg" viewBox="0 0 640 512"><!-- Font Awesome Pro 6.0.0-alpha2 by @fontawesome - https://fontawesome.com License - https://fontawesome.com/license (Commercial License) --><path d="M328 72.007C328 67.585 324.406 64.007 320 64.007C253.844 64.007 200 117.835 200 184.007C200 188.429 203.594 192.007 208 192.007S216 188.429 216 184.007C216 126.663 262.656 80.007 320 80.007C324.406 80.007 328 76.429 328 72.007ZM383.975 415.984H256.025C247.18 415.984 240.012 423.163 240.025 432.011L240.063 454.327C240.072 460.652 241.947 466.831 245.451 472.097L262.5 497.718C267.727 505.574 279.723 511.999 289.156 511.999H350.842C360.277 511.999 372.273 505.57 377.5 497.718L394.594 472.031C397.523 467.624 399.93 459.695 399.937 454.406L399.975 432.011C399.988 423.163 392.82 415.984 383.975 415.984ZM383.938 454.382C383.934 456.531 382.465 461.374 381.273 463.167L364.18 488.851C361.914 492.257 354.934 495.999 350.842 495.999H289.156C285.066 495.999 278.086 492.261 275.82 488.859L258.771 463.234C257.004 460.577 256.068 457.492 256.062 454.3L256.025 431.984H383.975L383.938 454.382ZM320.031 0.007H319.438C222.344 0.304 143.344 79.554 143.344 176.663C143.344 219.445 158.875 260.726 187.094 292.898C200.656 308.351 225.781 344.992 235.281 376.945C235.781 381.32 239.719 384.445 244.156 383.945C248.531 383.429 251.688 379.46 251.156 375.07L250.781 372.976C240.375 337.992 213.563 298.804 199.094 282.335C173.469 253.101 159.344 215.57 159.344 176.663C159.344 86.851 229.688 16.273 319.5 16.007H320.031C362.844 16.007 403.094 32.632 433.406 62.867C463.875 93.241 480.656 133.648 480.656 176.663C480.656 215.57 466.531 253.101 440.906 282.335C426.438 298.804 399.625 337.992 388.906 374.492C388.906 374.523 388.844 375.054 388.844 375.07C388.313 379.46 391.375 383.742 395.75 384.257C396.094 384.288 396.438 384.304 396.781 384.304C400.719 384.304 404.063 381.585 404.531 377.538C414.219 344.992 439.344 308.351 452.906 292.898C481.125 260.726 496.656 219.445 496.656 176.663C496.656 129.367 478.219 84.929 444.719 51.538C411.375 18.288 367.094 0.007 320.031 0.007ZM43.578 0.851C39.656 -1.102 34.844 0.492 32.844 4.429C30.875 8.382 32.469 13.179 36.422 15.163L116.422 55.163C117.578 55.742 118.797 56.007 120 56.007C122.922 56.007 125.75 54.382 127.156 51.585C129.125 47.632 127.531 42.835 123.578 40.851L43.578 0.851ZM112 152.007C112 147.585 108.422 144.007 104 144.007H8C3.578 144.007 0 147.585 0 152.007S3.578 160.007 8 160.007H104C108.422 160.007 112 156.429 112 152.007ZM520 56.007C521.203 56.007 522.422 55.742 523.578 55.163L603.578 15.163C607.531 13.179 609.125 8.382 607.156 4.429C605.172 0.476 600.406 -1.133 596.422 0.851L516.422 40.851C512.469 42.835 510.875 47.632 512.844 51.585C514.25 54.382 517.078 56.007 520 56.007ZM632 144.007H536C531.578 144.007 528 147.585 528 152.007S531.578 160.007 536 160.007H632C636.422 160.007 640 156.429 640 152.007S636.422 144.007 632 144.007ZM523.578 248.843C522.422 248.265 521.203 247.999 520 247.999C517.078 247.999 514.25 249.624 512.844 252.421C510.875 256.374 512.469 261.171 516.422 263.156L596.422 303.156C600.344 305.109 605.156 303.515 607.156 299.577C609.125 295.624 607.531 290.827 603.578 288.843L523.578 248.843ZM120 247.999C118.797 247.999 117.578 248.265 116.422 248.843L36.422 288.843C32.469 290.827 30.875 295.624 32.844 299.577C34.828 303.531 39.594 305.14 43.578 303.156L123.578 263.156C127.531 261.171 129.125 256.374 127.156 252.421C125.75 249.624 122.922 247.999 120 247.999Z"/></svg>
